!!!!SEGMENT: pl-kk--kk-i-382--058_hlonowski-j--ciebie-boze-chwalimy.krn
!!!cenid: 18xx:1560
!!!COM: Hlonowski, J.
!!!COM-rismid: pe50046000
!!!CDT:
!!!CNT:
!!!OTL: Ciebie Boże chwalimy
!!!PDT:
!!!AGN: Sacred
!!!SMS-siglum: PL-Kk
!!!SMS-shelfmark: Kk.I.382
!!!SMS-shelfwork: 044 W
!!!SMS-variant:
!!!SMS-altvar:
!!!NIFC-rismid: 1001140921
!!!URL-scan: http://repozytorium.nifc.pl/skany/pl-kk-nut--i-382
!!!ONB-nifc: UWAGA: obsada: S/T1, A/B1, T2, B2. Skany 0041, 0184, 0129, 0260
!!!AIN: 1 alto 1 bass 2 tenor
!!!key:
**kern	**text	**text	**kern	**text	**text	**dynam	**kern	**text	**text	**kern	**text	**text	**dynam
*part4	*part4	*part4	*part3	*part3	*part3	*part3	*part2	*part2	*part2	*part1	*part1	*part1	*part1
*staff4	*staff4	*staff4	*staff3	*staff3	*staff3	*	*staff2	*staff2	*staff2	*staff1	*staff1	*staff1	*
*Ibass	*	*	*Itenor	*	*	*	*Ialto	*	*	*Itenor	*	*	*
*I"Basso II	*	*	*I"Tenore II	*	*	*	*I"Alto vel Basso I	*	*	*I"Soprano vel Tenore I.	*	*	*
*I'B II	*	*	*I'T II	*	*	*	*I'A vel B I	*	*	*I'S vel T I	*	*	*
*clefF4	*	*	*clefG2	*	*	*	*clefF4	*	*	*clefG2	*	*	*
*	*	*	*ITrd7c12	*	*	*	*	*	*	*	*	*	*
*k[b-e-]	*	*	*k[b-e-]	*	*	*	*k[b-e-]	*	*	*k[b-e-]	*	*	*
*B-:	*	*	*B-:	*	*	*	*B-:	*	*	*B-:	*	*	*
*M4/4	*	*	*M4/4	*	*	*	*M4/4	*	*	*M4/4	*	*	*
*met(c)	*	*	*met(c)	*	*	*	*met(c)	*	*	*met(c)	*	*	*
*>[A,A,B,C,C]	*	*	*>[A,A,B,C,C]	*	*	*	*>[A,A,B,C,C]	*	*	*>[A,A,B,C,C]	*	*	*
=1!|:	=1!|:	=1!|:	=1!|:	=1!|:	=1!|:	=1!|:	=1!|:	=1!|:	=1!|:	=1!|:	=1!|:	=1!|:	=1!|:
*>A	*	*	*>A	*	*	*	*>A	*	*	*>A	*	*	*
*	*	*	*	*	*	*	*all\right	*	*	*	*	*	*
*	*	*	*	*	*	*	*2\right	*	*	*	*	*	*
!	!	!	!	!	!	!	!LO:TX:t=P:problem=prawdopodobnie partia powinna zostać zapisana w kluczu wiolinowym oktawę wyżej	!	!	!	!	!	!
2BB-/	Cie-	Cie-	2B-\	Cie-	Cie-	.	2D\	Cie-	Cie-	2b-\	Cie-	Cie-	.
2FF/	-bie,	-bie,	2A/	-bie	-bie	.	2F\	-bie	-bie	2cc\	-bie,	-bie	.
=2	=2	=2	=2	=2	=2	=2	=2	=2	=2	=2	=2	=2	=2
2BB-/	Bo-	Pa-	2B-\	Bo-	Pa-	.	2F\	Bo-	Pa-	2dd\	Bo-	Pa-	.
4C/	-że,	-nem	4A/	-że	-nem	.	4E-\	-że,	-nem	4cc\	-że	-nem	.
4D/	chwa-	nad	4B-/	chwa-	nad	.	4F\	chwa-	nad	4b-\	chwa-	nad	.
=3	=3	=3	=3	=3	=3	=3	=3	=3	=3	=3	=3	=3	=3
(2C/	-li-	pa-	(>2A/	-li-	pa-	.	1F	-li-	pa-	(2ee-\	-li-	pa-	.
2BB-/)	.	.	2B-/)	.	.	.	.	.	.	2dd\)	.	.	.
=4	=4	=4	=4	=4	=4	=4	=4	=4	=4	=4	=4	=4	=4
1F;	-my,	-ny	1A;	-my,	-ny.	.	1F;	-my,	-ny	1cc;	-my,	-ny.	.
=5	=5	=5	=5	=5	=5	=5	=5	=5	=5	=5	=5	=5	=5
2BB-/	Cie-	z_ser-	2B-\	Cie-	z_ser-	.	2F\	Cie-	z_ser-	2dd\	Cie-	z_ser-	.
2BB-/	-bie	-ca	2B-\	-bie	-ca	.	2F\	-bie	-ca	2dd\	-bie	-ca	.
=6	=6	=6	=6	=6	=6	=6	=6	=6	=6	=6	=6	=6	=6
2FF/	u-	wy-	2A/	u-	wy-	.	2F\	[[P]]u-	wy-	2cc\	u-	wy-	.
2BB-/	-wiel-	-zna-	2G/	-wiel-	-zna-	.	2D\	-wiel-	-zna-	2b-\	-wiel-	-zna-	.
!LO:LB:g=original	!	!	!LO:LB:g=original	!	!	!	!LO:LB:g=original	!	!	!LO:LB:g=original	!	!	!
=7	=7	=7	=7	=7	=7	=7	=7	=7	=7	=7	=7	=7	=7
1C	-bia-	-wa-	(>2F/	-bia-	-wa-	.	1C	-bia-	-wa-	(>2a/	-bia-	-wa-	.
.	.	.	2En/)	.	.	.	.	.	.	2g/)	.	.	.
=8	=8	=8	=8	=8	=8	=8	=8	=8	=8	=8	=8	=8	=8
1F;	-my!	-my!	1F;	-my	-my	.	1F;	-my!	-my!	1f;	-my!	-my!	.
=9:|!	=9:|!	=9:|!	=9:|!	=9:|!	=9:|!	=9:|!	=9:|!	=9:|!	=9:|!	=9:|!	=9:|!	=9:|!	=9:|!
*>B	*	*	*>B	*	*	*	*>B	*	*	*>B	*	*	*
*2\right	*	*	*	*	*	*	*	*	*	*	*	*	*
!	!	!	!LO:TX:t=P:problem=skreślony dźwięk 1d	!	!	!LO:DY:a:rj	!	!	!	!	!	!	!LO:DY:a:rj
2F\	Cie-	.	2A/	Cie-	.	p	2F\	Cie-	.	2cc\	Cie-	.	p
2E-\	-bie,	.	2G/	-bie,	.	.	2G\	-bie,	.	2cc\	-bie,	.	.
=10	=10	=10	=10	=10	=10	=10	=10	=10	=10	=10	=10	=10	=10
2D\	Oj-	.	2F#X/	Oj-	.	.	2A\	Oj-	.	2dd\	Oj-	.	.
4D\	-cze	.	4F#/	-cze	.	.	4D\	-cze	.	4a/	-cze	.	.
4C/	przed-	.	4F#/	przed-	.	.	4D\	przed-	.	4a/	przed-	.	.
=11	=11	=11	=11	=11	=11	=11	=11	=11	=11	=11	=11	=11	=11
(>2BB-/	-wie-	.	(2G/	-wie-	.	.	(2D\	-wie-	.	(2dd\	-wie-	.	.
2D/)	.	.	2A/)	.	.	.	2F#X\)	.	.	2cc\)	.	.	.
=12	=12	=12	=12	=12	=12	=12	=12	=12	=12	=12	=12	=12	=12
1G;	-czny	.	1G;	-czny,	.	.	1G;	-czny,	.	1b-;	-czny,	.	.
!LO:LB:g=original	!	!	!LO:LB:g=original	!	!	!	!LO:LB:g=original	!	!	!LO:LB:g=original	!	!	!
=13	=13	=13	=13	=13	=13	=13	=13	=13	=13	=13	=13	=13	=13
!	!	!	!	!	!	!	!	!	!	!LO:TX:t=P:problem=skreślone dźwięki 1dd 1ff	!	!	!
2F\	wiel-	.	2A/	wiel-	.	.	2F\	wiel-	.	2cc\	wiel-	.	.
2BB-/	-bi	.	2B-/	-bi	.	.	2F\	-bi	.	2dd\	-bi	.	.
=14	=14	=14	=14	=14	=14	=14	=14	=14	=14	=14	=14	=14	=14
*2\left	*	*	*	*	*	*	*	*	*	*	*	*	*
2E-\	zie-	.	2A/	zie-	.	.	2F\	zie-	.	2cc\	zie-	.	.
2D\	-mia	.	2B-/	-mia	.	.	2F\	-mia	.	2b-\	-mia	.	.
=15	=15	=15	=15	=15	=15	=15	=15	=15	=15	=15	=15	=15	=15
(2C/	ca-	.	(2A/	ca-	.	.	1F	ca-	.	(2ee-\	ca-	.	.
2BB-/)	.	.	2B-\)	.	.	.	.	.	.	2dd\)	.	.	.
=16	=16	=16	=16	=16	=16	=16	=16	=16	=16	=16	=16	=16	=16
1F;	-ła;	.	1A;	-ła;	.	.	1F;	-ła;	.	1cc;	-ła;	.	.
=17!|:	=17!|:	=17!|:	=17!|:	=17!|:	=17!|:	=17!|:	=17!|:	=17!|:	=17!|:	=17!|:	=17!|:	=17!|:	=17!|:
*>C	*	*	*>C	*	*	*	*>C	*	*	*>C	*	*	*
!LO:TX:t=P:problem=znak początku repetycji dopisany ołówkiem	!	!	!LO:TX:t=P:problem=znak początku repetycji dopisany ołówkiem	!	!	!	!LO:TX:t=P:problem=znak początku repetycji dopisany ołówkiem	!	!	!LO:TX:t=P:problem=znak początku repetycji dopisany ołówkiem	!	!	!
(4BB-/	To-	.	(4B-\	To-	.	.	2F\	To-	.	2dd\	To-	.	.
4BBn/)	.	.	4A-X/)	.	.	.	.	.	.	.	.	.	.
4C/	-bie	.	4G/	-bie	.	.	4E-\	-bie	.	4ee-\	-bie	.	.
4G\	cześć,	.	4B-/	cześć,	.	.	4G\	cześć,	.	4dd\	cześć,	.	.
=18	=18	=18	=18	=18	=18	=18	=18	=18	=18	=18	=18	=18	=18
*2\right	*	*	*	*	*	*	*	*	*	*	*	*	*
2E-\	po-	.	2e-\	po-	.	.	2B-\	po-	.	2gg\	po-	.	.
2BB-/	-kłon,	.	2d\	-kłon,	.	.	2B-\	-kłon,	.	2ff\	-kłon,	.	.
!LO:LB:g=original	!	!	!LO:LB:g=original	!	!	!	!LO:LB:g=original	!	!	!LO:LB:g=original	!	!	!
=19	=19	=19	=19	=19	=19	=19	=19	=19	=19	=19	=19	=19	=19
1AA	dzię-	.	1c	dzię-	.	.	1F	dzię-	.	(2ff\	dzię-	.	.
.	.	.	.	.	.	.	.	.	.	2ee-\)	.	.	.
=20	=20	=20	=20	=20	=20	=20	=20	=20	=20	=20	=20	=20	=20
1BB-	-ki,	.	1B-	-ki,	.	.	1F	-ki,	.	1dd	-ki,	.	.
=21	=21	=21	=21	=21	=21	=21	=21	=21	=21	=21	=21	=21	=21
2F\	To-	.	2A/	To-	.	.	2F\	To-	.	2cc\	To-	.	.
2E-\	-bie	.	2A/	-bie	.	.	2F\	-bie	.	2cc\	-bie	.	.
=22	=22	=22	=22	=22	=22	=22	=22	=22	=22	=22	=22	=22	=22
*	*	*	*2\right	*	*	*	*	*	*	*	*	*	*
2D\	wie-	.	2B-\	wie-	.	.	2F\	wie-	.	2ff\	wie-	.	.
2E-\	-czna	.	2c\	-czna	.	.	2G\	-czna	.	2ee-\	-czna	.	.
=23	=23	=23	=23	=23	=23	=23	=23	=23	=23	=23	=23	=23	=23
(<2F\	chwa-	.	(2B-\	chwa-	.	.	(2.F\	chwa-	.	(2dd\	chwa-	.	.
2FF/)	.	.	2A/)	.	.	.	.	.	.	2cc\)	.	.	.
.	.	.	.	.	.	.	4E-\)	.	.	.	.	.	.
=24	=24	=24	=24	=24	=24	=24	=24	=24	=24	=24	=24	=24	=24
1BB-;	-ła.	.	1B-;	-ła.	.	.	1D;	-ła.	.	1b-;	-ła.	.	.
=:|!	=:|!	=:|!	=:|!	=:|!	=:|!	=:|!	=:|!	=:|!	=:|!	=:|!	=:|!	=:|!	=:|!
*-	*-	*-	*-	*-	*-	*-	*-	*-	*-	*-	*-	*-	*-
!!!system-decoration: [(s1,s2,s3,s4)]
!!!RDF**kern: > = above
!!!RDF**kern: < = below
!!!ENC: Marta Lawrence
!!!END: 2021-02-11
!!!ENC: Andrzej Kubiczek
!!!END: 2021-01-31
